images/section-social-icons/instagram_icon.svg

<svg width="70" height="70" viewBox="0 0 70 70" fill="none" xmlns="http://www.w3.org/2000/svg">
<path d="M61.0956 24.2228C61.0661 22.0138 60.6526 19.8267 59.8735 17.7595C59.1978 16.0157 58.1659 14.4321 56.8436 13.1098C55.5212 11.7875 53.9376 10.7555 52.1939 10.0799C50.1532 9.31383 47.9973 8.89962 45.8181 8.85487C43.0122 8.72946 42.1226 8.69446 35.0001 8.69446C27.8776 8.69446 26.9647 8.69446 24.1793 8.85487C22.001 8.89995 19.8462 9.31416 17.8064 10.0799C16.0624 10.7551 14.4785 11.7868 13.1562 13.1092C11.8338 14.4316 10.802 16.0155 10.1268 17.7595C9.35923 19.7986 8.94592 21.9539 8.90473 24.1324C8.77931 26.9411 8.74139 27.8307 8.74139 34.9532C8.74139 42.0757 8.74139 42.9857 8.90473 45.774C8.94848 47.9557 9.35973 50.1082 10.1268 52.1528C10.8031 53.8963 11.8357 55.4795 13.1585 56.8013C14.4813 58.1231 16.0653 59.1545 17.8093 59.8295C19.8435 60.6263 21.9987 61.0701 24.1822 61.142C26.991 61.2674 27.8806 61.3053 35.0031 61.3053C42.1256 61.3053 43.0385 61.3053 45.8239 61.142C48.0031 61.099 50.1591 60.6858 52.1997 59.9199C53.943 59.2434 55.5262 58.2112 56.8484 56.889C58.1707 55.5668 59.2029 53.9836 59.8793 52.2403C60.6464 50.1986 61.0576 48.0461 61.1014 45.8615C61.2268 43.0557 61.2647 42.1661 61.2647 35.0407C61.2589 27.9182 61.2589 27.014 61.0956 24.2228V24.2228ZM34.9826 48.4224C27.5335 48.4224 21.4989 42.3878 21.4989 34.9386C21.4989 27.4895 27.5335 21.4549 34.9826 21.4549C38.5588 21.4549 41.9884 22.8755 44.5171 25.4042C47.0458 27.9329 48.4664 31.3625 48.4664 34.9386C48.4664 38.5147 47.0458 41.9444 44.5171 44.4731C41.9884 47.0018 38.5588 48.4224 34.9826 48.4224V48.4224ZM49.0031 24.1003C48.5901 24.1007 48.181 24.0196 47.7994 23.8617C47.4177 23.7039 47.071 23.4723 46.7789 23.1802C46.4869 22.8882 46.2553 22.5414 46.0974 22.1598C45.9396 21.7782 45.8585 21.3691 45.8589 20.9561C45.8589 20.5434 45.9402 20.1348 46.0981 19.7535C46.2561 19.3722 46.4875 19.0257 46.7794 18.7339C47.0712 18.4421 47.4176 18.2106 47.7989 18.0526C48.1802 17.8947 48.5889 17.8134 49.0016 17.8134C49.4143 17.8134 49.823 17.8947 50.2043 18.0526C50.5856 18.2106 50.932 18.4421 51.2238 18.7339C51.5157 19.0257 51.7471 19.3722 51.9051 19.7535C52.063 20.1348 52.1443 20.5434 52.1443 20.9561C52.1443 22.6945 50.7385 24.1003 49.0031 24.1003Z" fill="#CCCCCC"/>
<path d="M34.9829 43.6974C39.8202 43.6974 43.7416 39.776 43.7416 34.9387C43.7416 30.1014 39.8202 26.1799 34.9829 26.1799C30.1456 26.1799 26.2242 30.1014 26.2242 34.9387C26.2242 39.776 30.1456 43.6974 34.9829 43.6974Z" fill="#CCCCCC"/>
</svg>

<svg width="70" height="70" fill="none" xmlns="http://www.w3.org/2000/svg"><path d="M61.096 24.223a19.048 19.048 0 0 0-1.222-6.463 13.446 13.446 0 0 0-7.68-7.68 19.267 19.267 0 0 0-6.376-1.225c-2.806-.126-3.695-.16-10.818-.16-7.122 0-8.035 0-10.82.16-2.179.045-4.334.46-6.374 1.225a13.436 13.436 0 0 0-7.68 7.68 19.115 19.115 0 0 0-1.221 6.372c-.126 2.81-.164 3.699-.164 10.821 0 7.123 0 8.033.164 10.821a19.237 19.237 0 0 0 1.222 6.379 13.446 13.446 0 0 0 7.682 7.677c2.034.796 4.19 1.24 6.373 1.312 2.809.125 3.699.163 10.821.163 7.123 0 8.035 0 10.82-.163A19.223 19.223 0 0 0 52.2 59.92a13.461 13.461 0 0 0 7.68-7.68 19.21 19.21 0 0 0 1.221-6.379c.126-2.805.164-3.695.164-10.82-.006-7.123-.006-8.027-.17-10.818zm-26.113 24.2c-7.45 0-13.484-6.035-13.484-13.484 0-7.45 6.035-13.484 13.484-13.484a13.484 13.484 0 1 1 0 26.967zM49.003 24.1a3.14 3.14 0 0 1-2.905-4.347 3.142 3.142 0 0 1 6.046 1.203 3.141 3.141 0 0 1-3.14 3.144z" fill="#CCC"/><path d="M34.983 43.697a8.759 8.759 0 1 0 0-17.517 8.759 8.759 0 0 0 0 17.517z" fill="#CCC"/></svg>
